X:1
T:Title
%%score 1 2 3
L:1/8
M:3/2
K:C
V:1 treble nm="Part_1"
V:2 treble-8 nm="Part_2"
V:3 treble-8 nm="Part_3"
V:1
 G4 A6 G2 | A4 G6 F2 | E4 D2 D4 E2 | G6 F2 F4 | G4 F2 D2 E4 | D4 z2 D2 E2 F2 | G4 A6 G2 | %7
 _B6 A2 c2 BA | G2 A2 G2 E2 F4 | G12 || A6 B2 c4- | c2 A2 _B4 A2 =B2 | c6 A2 B2 c2 | %13
 _B2 A4 A2 G3 F | A4 F2 G4 F2 | D2 _E4 D2 C2 _B,2 | D4 z4 D4 | E4 F6 G2 | _B4 A6 G2 | G4 F4 G2 F2 | %20
 G12 || d6 c2 d2 e2 | d4 c6 A2 | _B6 c2 B2 G2 | A2 _B2 A2 A2 G2 F2 | A4 z4 A2 _B2 | c4 d6 c2 | %27
 d4 c2 A2 _B4 | A2 G2 F2 G2 E2 D2 | F4 z4 A2 _B2 | c6 A2 _B4 | A4 G6 F2 | A8 F2 G2 | A4 G2 _B4 A2 | %34
 G6 F2 F2 E2 | G12 |] %36
V:2
 d4 e6 d2 | e4 d6 c2 | B4 A2 A4 B2 | d6 c2 c4 | d4 c2 A2 B4 | A4 z2 A2 B2 c2 | d4 e6 d2 | %7
 f6 e2 g2 fe | d2 e2 d2 B2 c4 | d12 || e6 f2 g4- | g2 e2 f4 e2 f2 | g6 e2 f2 g2 | f2 e4 e2 d3 c | %14
 e4 c2 d4 c2 | A2 _B4 A2 G2 F2 | A4 z4 A4 | B4 c6 d2 | f4 e6 d2 | d4 c4 d2 c2 | d12 || %21
 a6 g2 a2 b2 | a4 g6 e2 | f6 g2 f2 d2 | e2 f2 e2 e2 d2 c2 | e4 z4 e2 f2 | g4 a6 g2 | a4 g2 e2 f4 | %28
 e2 d2 c2 d2 B2 A2 | c4 z4 e2 f2 | g6 e2 f4 | e4 d6 c2 | e8 c2 d2 | e4 d2 f4 e2 | d6 c2 c2 B2 | %35
 d12 |] %36
V:3
 G4 c6 B2 | A4 B6 A2 | G4 D6 G2- | G2 A2 B4 A4 | G4 A2 F2 G4 | D8 G2 A2 | B4 A6 B2 | d8 c4 | %8
 B2 c2 B2 G2 A4 | G12 || A4 c6 d2 | e2 c2 d4 A4 | e6 c2 d2 e2 | d2 c4 d2 _B4 | A8 G4 | %15
 F4 G2 D2 _E4 | D8 F4 | G4 A6 _B2 | d4 c8 | _B4 A8 | G12 || d6 e2 f2 g2 | d4 e6 d2 | d8 _B4 | %24
 c2 d2 c2 A2 B4 | A8 c2 d2 | e4 f6 d2 | d4 e2 c2 d4 | A4 _B4 G4 | F2 A4 B2 c2 d2 | e8 d4 | c4 _B8 | %32
 A4 z4 A2 B2 | c4 d6 c2 | _B4 A8 | G12 |] %36

